X:8
T:T204D- William and Margaret
S:Orpheus Caledonius, I, #49, 1733
N:When all was rapt in dark midnight- not Child #77
Q:1/4=60
L:1/4
M:3/4
K:G
G|D3/4 E/4GG|A3/4 B/4Dz/d/|d/ (c/4B/4) (c/B/A/) G/|E2G|\
D3/4 E/4 GG|A3/4 B/4Dz/d/|d/ (c/4B/4)(AB/) d/|d2||\
d/|({e/}d/) (c/4B/4) (c/B/A/) G/|c3/4 d/4ez/d/|\
d/ (c/4B/4) (c/B/A/) G/|E2G|D3/4 E/4 GG|A/ B/ gz/(f/4e/4)|\
d/ (c/4B/4)"tr"A3/2G/|G2|]

